svgs/sharp-light/hourglass-start.svg

<svg xmlns="http://www.w3.org/2000/svg" viewBox="0 0 384 512"><!--! Font Awesome Pro 6.6.0 by @fontawesome - https://fontawesome.com License - https://fontawesome.com/license (Commercial License) Copyright 2024 Fonticons, Inc. --><path d="M384 512l-16 0-32 0L48 512l-32 0L0 512l0-32 16 0 16 0 0-112 0-7.8 6.2-4.8L165.9 256 38.2 156.6 32 151.8l0-7.8L32 32 16 32 0 32 0 0 16 0 48 0 336 0l32 0 16 0 0 32-16 0-16 0 0 112 0 7.8-6.2 4.8L218.1 256l127.8 99.4 6.2 4.8 0 7.8 0 112 16 0 16 0 0 32zm-64-32l0-104.2L192 276.3 64 375.8 64 480l256 0zm0-343.8l0-8.2L64 128l0 8.2 128 99.6 128-99.6zM320 96l0-64L64 32l0 64 256 0z"/></svg>

<svg xmlns="http://www.w3.org/2000/svg" viewBox="0 0 384 512"><!--! Font Awesome Pro 6.5.2 by @fontawesome - https://fontawesome.com License - https://fontawesome.com/license (Commercial License) Copyright 2024 Fonticons, Inc. --><path d="M384 512H368 336 48 16 0V480H16 32V368v-7.8l6.2-4.8L165.9 256 38.2 156.6 32 151.8V144 32H16 0V0H16 48 336h32 16V32H368 352V144v7.8l-6.2 4.8L218.1 256l127.8 99.4 6.2 4.8V368 480h16 16v32zm-64-32V375.8L192 276.3 64 375.8V480H320zm0-343.8V128H64v8.2l128 99.6 128-99.6zM320 96V32H64V96H320z"/></svg>
